resources/svg/compasses-2-line.svg

<svg fill="currentColor" viewBox="0 0 24 24" xmlns="http://www.w3.org/2000/svg"><path d="M16.3298 13.4968C17.9557 12.215 18.9995 10.2277 18.9995 7.99658H20.9995C20.9995 10.9686 19.559 13.6041 17.338 15.2431L19.8656 19.6209C20.4179 20.5775 20.0901 21.8007 19.1335 22.353L15.6068 16.2445C14.5025 16.7282 13.2823 16.9966 11.9995 16.9966C10.7167 16.9966 9.49663 16.7282 8.39229 16.2445L4.86557 22.353C3.90898 21.8007 3.58123 20.5775 4.13352 19.6209L9.19702 10.8507C8.45796 10.1249 7.99954 9.11427 7.99954 7.99658C7.99954 6.13274 9.27432 4.56664 10.9995 4.1226V1.99658H12.9995V4.1226C14.7248 4.56664 15.9995 6.13274 15.9995 7.99658C15.9995 9.11427 15.5411 10.1249 14.8021 10.8507L16.3298 13.4968ZM14.5986 14.4982L13.0705 11.8516C12.7297 11.9461 12.3705 11.9966 11.9995 11.9966C11.6286 11.9966 11.2694 11.9461 10.9286 11.8516L9.40053 14.4982C10.2041 14.8197 11.0812 14.9966 11.9995 14.9966C12.9179 14.9966 13.795 14.8197 14.5986 14.4982ZM11.9995 9.99658C13.1041 9.99658 13.9995 9.10115 13.9995 7.99658C13.9995 6.89201 13.1041 5.99658 11.9995 5.99658C10.895 5.99658 9.99954 6.89201 9.99954 7.99658C9.99954 9.10115 10.895 9.99658 11.9995 9.99658Z"/></svg>

<svg xmlns="http://www.w3.org/2000/svg" viewBox="0 0 24 24" fill="currentColor">
    <g>
        <path fill="none" d="M0 0h24v24H0z"/>
        <path d="M16.33 13.5A6.988 6.988 0 0 0 19 8h2a8.987 8.987 0 0 1-3.662 7.246l2.528 4.378a2 2 0 0 1-.732 2.732l-3.527-6.108A8.97 8.97 0 0 1 12 17a8.97 8.97 0 0 1-3.607-.752l-3.527 6.108a2 2 0 0 1-.732-2.732l5.063-8.77A4.002 4.002 0 0 1 11 4.126V2h2v2.126a4.002 4.002 0 0 1 1.803 6.728L16.33 13.5zM14.6 14.502l-1.528-2.647a4.004 4.004 0 0 1-2.142 0l-1.528 2.647c.804.321 1.68.498 2.599.498.918 0 1.795-.177 2.599-.498zM12 10a2 2 0 1 0 0-4 2 2 0 0 0 0 4z"/>
    </g>
</svg>
